_uploads/dcdw-lockup-menu.svg

<?xml version="1.0" encoding="UTF-8"?>
<svg width="172px" height="48px" viewBox="0 0 172 48" version="1.1" xmlns="http://www.w3.org/2000/svg" xmlns:xlink="http://www.w3.org/1999/xlink">
    <!-- Generator: Sketch 51.3 (57544) - http://www.bohemiancoding.com/sketch -->
    <title>dcdw-lockup-menu</title>
    <desc>Created with Sketch.</desc>
    <defs>
        <polygon id="path-1" points="0.0707700573 0.069655814 38.5555349 0.069655814 38.5555349 32.6484465 0.0707700573 32.6484465"></polygon>
        <polygon id="path-3" points="0.0746046512 0.0668930233 7.43888372 0.0668930233 7.43888372 47.9069767 0.0746046512 47.9069767"></polygon>
    </defs>
    <g id="dcdw-lockup-menu" stroke="none" stroke-width="1" fill="none" fill-rule="evenodd">
        <g id="Group-15">
            <g id="Group-6" transform="translate(104.000000, 7.654047)">
                <g id="Group-3" transform="translate(29.488372, 0.000000)">
                    <mask id="mask-2" fill="white">
                        <use xlink:href="#path-1"></use>
                    </mask>
                    <g id="Clip-2"></g>
                    <path d="M38.4288465,0.289097674 C38.3184279,0.14984186 38.1517302,0.069655814 37.974614,0.069655814 L31.2417767,0.069655814 C30.9601953,0.069655814 30.7194512,0.27095814 30.6694977,0.547981395 L27.6853116,17.1327256 L23.9320093,0.522306977 C23.8714512,0.257283721 23.6352651,0.069655814 23.3642884,0.069655814 L16.558707,0.069655814 C16.2876372,0.069655814 16.0530326,0.257283721 15.9924744,0.520725581 L12.1058698,17.5293767 L7.94996279,0.513190698 C7.88633488,0.252725581 7.65312558,0.069655814 7.38512558,0.069655814 L0.652195349,0.069655814 C0.472102326,0.069655814 0.301032558,0.1544 0.19052093,0.296725581 C0.0814976744,0.440539535 0.0436372093,0.626772093 0.0905209302,0.800911628 L8.51005581,32.2170047 C8.57814884,32.4713302 8.8083814,32.6484465 9.07182326,32.6484465 L14.9522884,32.6484465 C15.2202884,32.6484465 15.4534977,32.4653767 15.5170326,32.2064 L19.9380558,14.2212837 L24.358986,32.2064 C24.422614,32.4653767 24.6556372,32.6484465 24.9236372,32.6484465 L30.802707,32.6484465 C31.0737767,32.6484465 31.3083814,32.4608186 31.3689395,32.1957953 L38.5409395,0.779609302 C38.5802884,0.608632558 38.5393581,0.426865116 38.4288465,0.289097674" id="Fill-1" fill="#87C5B7" mask="url(#mask-2)"></path>
                </g>
                <path d="M20.5527535,16.3574977 C20.5527535,21.5703349 17.0416837,25.2116372 12.0150791,25.2116372 L7.4760093,25.2116372 L7.4760093,7.50652093 L12.0150791,7.50652093 C17.0416837,7.50652093 20.5527535,11.1462419 20.5527535,16.3574977 M28.0032651,16.3574977 C28.0032651,6.91145116 21.2794512,0.0560093023 12.0150791,0.0560093023 L0.603823256,0.0560093023 C0.282893023,0.0560093023 0.022427907,0.316381395 0.022427907,0.637404651 L0.022427907,32.0806605 C0.022427907,32.4017767 0.282893023,32.6620558 0.603823256,32.6620558 L12.0150791,32.6620558 C21.2794512,32.6620558 28.0032651,25.8051256 28.0032651,16.3574977" id="Fill-4" fill="#87C5B7"></path>
            </g>
            <g id="Group-9" transform="translate(78.232558, 0.026140)">
                <mask id="mask-4" fill="white">
                    <use xlink:href="#path-3"></use>
                </mask>
                <g id="Clip-8"></g>
                <path d="M6.85748837,0.0668930233 L0.656,0.0668930233 C0.335069767,0.0668930233 0.0746046512,0.32735814 0.0746046512,0.648288372 L0.0746046512,47.3255907 C0.0746046512,47.6465209 0.335069767,47.906986 0.656,47.906986 L6.85748837,47.906986 C7.17851163,47.906986 7.43888372,47.6465209 7.43888372,47.3255907 L7.43888372,0.648288372 C7.43888372,0.32735814 7.17851163,0.0668930233 6.85748837,0.0668930233" id="Fill-7" fill="#87C5B7" mask="url(#mask-4)"></path>
            </g>
            <g id="Group-14" transform="translate(0.000000, 7.654047)" fill="#87C5B7">
                <path d="M44.6240186,32.074707 C44.7376,32.1034512 44.8466233,32.1413116 44.9555535,32.1775907 C45.1448558,32.2412186 45.3340651,32.3032651 45.5429953,32.3456837 C45.6050419,32.3562884 45.6686698,32.3608465 45.7731349,32.366893 C46.8647628,32.5652186 47.865507,32.6620558 48.8769488,32.6620558 C48.9481116,32.6620558 49.0192744,32.6545209 49.1539721,32.6379628 C49.8065302,32.6228 50.4378791,32.5682884 51.0011349,32.4758233 C54.7816,32.0398233 58.1291349,30.5591721 60.6818791,28.1957302 C60.8740651,28.0171256 60.9225302,27.7323814 60.8029023,27.5007535 L57.7930419,21.706614 C57.7052279,21.5401023 57.5431814,21.4250326 57.3569488,21.3992651 C57.1799256,21.3643814 56.9829953,21.438614 56.8543442,21.574893 C54.6165767,23.9398233 51.8716465,25.1964744 48.861786,25.2100558 C44.6406698,25.2025209 41.4006698,22.7588 40.4058791,18.8299628 C40.1758326,17.9184279 40.0682977,17.1342419 40.0682977,16.3590791 C40.0682977,15.5944279 40.1727628,14.8208465 40.3968558,13.9244744 C41.3794605,9.97284651 44.6224372,7.51414884 48.9162977,7.51098605 C51.8732279,7.52168372 54.6180651,8.77824186 56.8543442,11.1431721 C56.9829953,11.2794512 57.1708093,11.3460558 57.3569488,11.3188 C57.5431814,11.2931256 57.7052279,11.1779628 57.7930419,11.0114512 L60.8029023,5.21731163 C60.9225302,4.98568372 60.8740651,4.70093953 60.6818791,4.52242791 C57.573507,1.64261395 53.3811349,0.0560093023 48.8314605,0.0560093023 C47.8594605,0.0560093023 46.8587163,0.152846512 45.7352744,0.352660465 C45.709507,0.352660465 45.5642047,0.369404651 45.5369488,0.373962791 C45.3371349,0.413311628 45.1478326,0.47535814 44.9586233,0.538893023 C44.8496,0.575265116 44.7390884,0.613125581 44.625507,0.641962791 C37.4429953,2.47386977 32.617786,8.77219535 32.617786,16.402893 C32.617786,23.9443814 37.4429953,30.242707 44.6240186,32.074707" id="Fill-10"></path>
                <path d="M7.43992558,25.1964279 L7.43992558,7.52163721 L11.9729488,7.52163721 C16.9920186,7.52163721 20.4969488,11.1553116 20.4969488,16.3590326 C20.4969488,21.5627535 16.9920186,25.1964279 11.9729488,25.1964279 L7.43992558,25.1964279 Z M0.581413953,32.6394047 L11.9729488,32.6394047 C21.2252279,32.6394047 27.9399256,25.792986 27.9399256,16.3590326 C27.9399256,6.92507907 21.2252279,0.0786604651 11.9729488,0.0786604651 L0.581413953,0.0786604651 C0.260390698,0.0786604651 1.86046512e-05,0.339032558 1.86046512e-05,0.660055814 L1.86046512e-05,32.0580093 C1.86046512e-05,32.3790326 0.260390698,32.6394047 0.581413953,32.6394047 Z" id="Fill-12"></path>
            </g>
        </g>
    </g>
</svg>

<svg height="48" viewBox="0 0 172 48" width="172" xmlns="http://www.w3.org/2000/svg" xmlns:xlink="http://www.w3.org/1999/xlink"><mask id="a" fill="#fff"><path d="m.07077006.06965581h38.48476484v32.57879069h-38.48476484z" fill="none"/></mask><mask id="b" fill="#fff"><path d="m.07460465.06689302h7.36427907v47.84008368h-7.36427907z" fill="none"/></mask><g fill="#87c5b7" fill-rule="evenodd"><g transform="translate(104 7.654047)"><path d="m38.4288465.28909767c-.1104186-.13925581-.2771163-.21944186-.4542325-.21944186h-6.7328373c-.2815814 0-.5223255.20130233-.572279.47832559l-2.9841861 16.5847442-3.7533023-16.61041862c-.0605581-.26502326-.2967442-.45265117-.5677209-.45265117h-6.8055814c-.2710698 0-.5056744.18762791-.5662326.45106977l-3.8866046 17.00865112-4.15590701-17.016186c-.06362791-.26046512-.29683721-.44353489-.56483721-.44353489h-6.73293023c-.18009302 0-.35116279.08474419-.46167442.22706977-.10902326.14381396-.14688372.33004651-.1.50418605l8.41953488 31.41609307c.06809303.2543255.29832559.4314418.56176745.4314418h5.88046514c.268 0 .5012093-.1830698.5647442-.4420465l4.4210232-17.9851163 4.4209302 17.9851163c.063628.2589767.2966512.4420465.5646512.4420465h5.8790698c.2710697 0 .5056744-.1876279.5662325-.4526512l7.172-31.416186c.0393489-.17097674-.0015814-.35274418-.112093-.49051163" mask="url(#a)" transform="translate(29.488372)"/><path d="m20.5527535 16.3574977c0 5.2128372-3.5110698 8.8541395-8.5376744 8.8541395h-4.5390698v-17.70511627h4.5390698c5.0266046 0 8.5376744 3.63972097 8.5376744 8.85097677m7.4505116 0c0-9.44604654-6.7238139-16.3014884-15.988186-16.3014884h-11.41125584c-.32093024 0-.58139535.2603721-.58139535.58139535v31.44325585c0 .3211162.26046511.5813953.58139535.5813953h11.41125584c9.2643721 0 15.988186-6.8569302 15.988186-16.3045581"/></g><path d="m6.85748837.06689302h-6.20148837c-.32093023 0-.58139535.26046512-.58139535.58139535v46.67730233c0 .3209302.26046512.5813953.58139535.5813953h6.20148837c.32102326 0 .58139535-.2604651.58139535-.5813953v-46.67730233c0-.32093023-.26037209-.58139535-.58139535-.58139535" mask="url(#b)" transform="translate(78.232558 .02614)"/><g transform="translate(0 7.654047)"><path d="m44.6240186 32.074707c.1135814.0287442.2226047.0666046.3315349.1028837.1893023.0636279.3785116.1256744.5874418.168093.0620466.0106047.1256745.0151628.2301396.0212093 1.0916279.1983256 2.0923721.2951628 3.1038139.2951628.0711628 0 .1423256-.0075349.2770233-.024093.6525581-.0151628 1.283907-.0696744 1.8471628-.1621395 3.7804651-.436 7.128-1.9166512 9.6807442-4.2800931.192186-.1786046.2406511-.4633488.1210232-.6949767l-3.0098604-5.7941395c-.087814-.1665117-.2498605-.2815814-.4360931-.3073489-.1770232-.0348837-.3739535.0393489-.5026046.1756279-2.2377675 2.3649303-4.9826977 3.6215814-7.9925582 3.6351628-4.2211162-.0075349-7.4611162-2.4512558-8.4559069-6.380093-.2300465-.9115349-.3375814-1.6957209-.3375814-2.4708837 0-.7646512.1044651-1.5382326.3285581-2.4346047.9826047-3.95162789 4.2255814-6.41032556 8.5194419-6.41348835 2.9569302.01069767 5.7017674 1.26725581 7.9380465 3.63218605.1286511.1362791.3164651.2028837.5026046.1756279.1862326-.0256744.3482791-.1408372.4360931-.3073488l3.0098604-5.79413957c.1196279-.23162791.0711628-.5163721-.1210232-.69488372-3.1083721-2.87981396-7.3007442-4.46641861-11.8504186-4.46641861-.972 0-1.9727442.09683721-3.0961861.29665117-.0257674 0-.1710697.01674418-.1983256.02130232-.1998139.03934884-.3891162.10139535-.5783255.16493023-.1090233.0363721-.2195349.07423256-.3331163.10306977-7.1825117 1.83190698-12.007721 8.13023256-12.007721 15.76093021 0 7.5414884 4.8252093 13.839814 12.0062326 15.671814"/><path d="m7.43992558 25.1964279v-17.67479069h4.53302322c5.0190698 0 8.524 3.63367439 8.524 8.83739539 0 5.2037209-3.5049302 8.8373953-8.524 8.8373953zm-6.85851163 7.4429768h11.39153485c9.2522791 0 15.9669768-6.8464187 15.9669768-16.2803721 0-9.43395353-6.7146977-16.28037213-15.9669768-16.28037213h-11.39153485c-.32102325 0-.58139535.26037209-.58139535.58139534v31.39795349c0 .3210233.2603721.5813954.58139535.5813954z"/></g></g></svg>
